!!!!SEGMENT: pl-wumfc--r311--001_paderewski-ignacy-jan--mazurka.krn
!!!cenid: 18xx:3384
!!!COM: Paderewski, Ignacy Jan
!!!COM-rismID: pe30029943
!!!CDT: 1860/11/18-1941/06/29
!!!CNT: Polish
!!!OTL: [Mazurka]
!!!PDT:
!!!AGN:
!!!SMS-siglum: PL-Wumfc
!!!SMS-shelfmark: R311
!!!SMS-shelfwork: 001 W
!!!SMS-variant:
!!!SMS-altvar:
!!!NIFC-rismSourceID: 1001159531
!!!NIFC-rismChildID: 1001159531
!!!NIFC-islandoraID: pl-wumfc:18190
!!!URL-pdf-islandora: https://repozytorium.nifc.pl/islandora/object/pl-wumfc%3A18190/datastream/PDF/view
!!!URL-scan: https://polish.musicsources.pl/pl/lokalizacje/galeria/rekopisy/4732-piano-pieces/1 @EN{Scan on Polish Music Sources Website} @PL{Skany w portalu Dziedzictwo Muzyki Polskiej w otwartym dostępie}
!!!ONB-nifc: UWAGA: skan 0001
!!!AIN: 2 piano
!!!key: F
**kern	**kern	**dynam
*group1	*group1	*
*part2	*part1	*part1
*staff2	*staff1	*
*I"[Piano]	*I"[Piano]	*
*Ipiano	*Ipiano	*
*ICklav	*ICklav	*
*clefF4	*clefG2	*
*k[b-]	*k[b-]	*
*F:	*F:	*
*M3/4	*M3/4	*
*>[A,B,B1,B,B2]	*>[A,B,B1,B,B2]	*
=1	=1	=1
*>A	*>A	*
!LO:TX:t=P:problem=all\right&colon; global	!LO:TX:t=P:problem=all\right&colon; global	!
2.r	8cc\L	.
.	8cc\J	.
.	4cc\	.
.	4cc\	.
*clefG2	*	*
=2	=2	=2
4g/ 4b-/	4cc\	.
4f/ 4a/	4cc\	.
4c/ 4g/	4cc\	.
=3!|:	=3!|:	=3!|:
*>B	*>B	*
*clefF4	*	*
4CC/	4cc\	.
4E\ 4G\ 4B-\ 4c\	8cc\L	.
.	8ee\J	.
4E\ 4G\ 4B-\ 4c\	8b-\L	.
.	8dd\J	.
=4	=4	=4
4E\	8a\L	.
.	8cc\J	.
4G\ 4B-\ 4c\	4g/	.
4G\ 4B-\ 4c\	8g/L	.
.	8b-/J	.
=5	=5	=5
4FF/	8a/L	.
.	8a/J	.
4F\ 4A\ 4c\	4f/	.
!	!LO:TX:t=P:4\left:problem	!
4F\ 4A\ 4c\	4dd\	.
!!LO:LB:g=original
=6	=6	=6
!LO:TX:t=P:4\left:problem	!	!
4AA\ 4F\	4cc\	.
4A\ 4c	8f/L	.
.	8a/J	.
4B-\ 4c	8g/L	.
.	8f/J	.
=7	=7	=7
4GG\ 4E\	8fM>/L	.
.	8f/J	.
4G\ 4B-\ 4c\	4e/	.
4G\ 4B-\ 4c\	4dd/	.
=8	=8	=8
*rep	*	*
4GG\ 4E\	4cc\	.
4G\ 4B-\ 4c\	8g/L	.
.	8b-/J	.
4G\ 4B-\ 4c\	8a/L	.
.	8g/J	.
*Xrep	*	*
=9	=9	=9
4F\	8fM>/L	.
.	8f/J	.
4A\ 4c\	4e/	.
4A\ 4c\	4dd/	.
=10	=10	=10
*2\left	*	*
2.F\ 2.A\ 2.c\	4cc\	.
.	8cc\L	.
.	8cc\	.
.	8cc\	.
.	8cc\J	.
!!LO:LB:g=original
=11	=11	=11
*8ba	*	*
4CCC/ 4CC/	4cc\	fp
*X8ba	*	*
4E\ 4G\ 4B-\ 4c\	8cc\L	.
.	8ee\J	.
4E\ 4G\ 4B-\ 4c\	8b-\L	.
.	8dd\J	.
=12	=12	=12
4E\	8a\L	.
.	8cc\J	.
4G\ 4B-\ 4c\	4g/	.
4G\ 4B-\ 4c\	8g/L	.
.	8b-/J	.
=13	=13	=13
4F\	8a/L	.
.	8a/J	.
4A\ 4c\	4f/	.
4A\ 4c\	4dd/	.
=14	=14	=14
*2\right	*	*
2.F\ 2.A\ 2.c\	4cc\	.
.	8cc\L	.
.	8cc\	.
.	8cc\	.
.	8cc\J	.
=15||	=15||	=15||
*>B1	*>B1	*
!!LO:TX:a:t=1a Valta
4GG/	8bnM\L	.
.	8b\J	.
4G\ 4Bn\ 4d\ 4f\	4g\	.
4G\ 4B\ 4d\ 4f\	4gg\	.
!!LO:LB:g=original
=16	=16	=16
4G\	4gg\	.
4Bn\ 4d\ 4f\	8dd\L	.
.	8ff\	.
4B\ 4d\ 4f\	8ee\	.
.	8dd\J	.
=17	=17	=17
*2\left	*	*
2.G\ 2.c\ 2.e\	8cc\L	.
.	8cc\J	.
.	4cc\	.
.	4cc\	.
*clefG2	*	*
=18	=18	=18
4g/ 4b-/	4cc\	.
4f/ 4a/	4cc\	.
4c/ 4g/	4cc\	.
*clefF4	*	*
=19:|!	=19:|!	=19:|!
*>B2	*>B2	*
4DD/ 4D/	8a\L 8cc\ 8dd\ 8ff#X\	.
.	8a\J 8cc\ 8dd\ 8ff#\	f
4D\ 4F#X\ 4A\ 4c\	4a\ 4cc\ 4dd\ 4ff#\	.
4D\ 4F#\ 4A\ 4c\	4a\ 4cc\ 4dd\ 4ff#\	.
=20	=20	=20
!!LO:TX:a:t=2a Valta
4GGG/ 4GG/	8b-:\L 8dd:\ 8gg:\	f
.	8aa\J	.
4G\ 4B-\ 4d\	4bb-\	.
4G\ 4B-\ 4d\	8bb-\L	.
.	8ddd\J	.
!!LO:LB:g=original
=21	=21	=21
4CC/	4ccc\	.
4E\ 4G\ 4B-\ 4c\	4bb-M>\	.
4E\ 4G\ 4B-\ 4c\	8aa\L	.
.	8gg\J	.
=22	=22	=22
4F\	4ff\	.
4F\ 4A\ 4c\	4ff\ 4aa\ 4ccc\ 4fff\	.
4r	4r	.
==	==	==
*-	*-	*-
!!!system-decoration: [(g1)]
!!!ENC: Filip Voros
!!!END: 2021-12-07
!!!EED: Jędrzej Mróz
!!!EEV: 2021-12-17
!!!YEC: Copyright 2022 Narodowy Instytut Fryderyka Chopina (https://polishscores.org)
!!!YEM: License CC-BY-4.0 (https://creativecommons.org/licenses/by/4.0)
